X:8062
T:Jodler I
C:Trad.
R:Jodler
B:Almrausch, Almliada aus Steiermark, Graz 1884
N:Alt Aussee, 1820
I:140
M:3/4
L:1/8
K:G
(GB,DGB,G) | (FCDFCF) | (ACDFCF) | (BB,DGB,G) |
(BB,DGBG) | (FCDFCF) | (ACDFCF) | G6 ||
